!!!COM: Bach, Johann Sebastian
!!!CDT: 1685/3//-1750/7/28/
!!!OTL@@DE: Ach bleib bei uns, Herr Jesu Christ
!!!AGN: 4-Part Chorale
!!!SCT: BH 177
!!!SCT: BWV 253
**harm	**root	**kern	**kern	**kern	**kern
!	!	!bass	!tenor	!alto	!soprno
*	*Iorgan	*Iorgan	*Iorgan	*Iorgan	*Iorgan
*M4/4	*M4/4	*M4/4	*M4/4	*M4/4	*M4/4
*met(c)	*met(c)	*met(c)	*met(c)	*met(c)	*met(c)
*MM60	*MM60	*MM60	*MM60	*MM60	*MM60
*k[]	*k[]	*k[]	*k[]	*k[]	*k[]
*G#:	*G#:	*G#:	*G#:	*G#:	*G#:
I	4AA	4GG#	4d#	4g#	4b#
=1	=1	=1	=1	=1	=1
I	4AA	4G#	4d#	4g#	8b#
.	.	.	.	.	8cc#
Vb	4EE	4F##	4d#	4a#	4dd#
I	4AA	4G#	4d#	4g#	4b#
IVb	4DD	4E#	8d#	4g#	4g#
.	.	.	8c#	.	.
=2	=2	=2	=2	=2	=2
IV/IV	4GG	4F#	4c#	8f#	4a#
.	.	.	.	8e#	.
V/IV	4AA	4G#	4G#	4d#	4b#
I/IV;	4DD;	4C#;	4G#;	4e#;	4cc#;
I	4AA	4GG#	4G#	4d#	4b#
=3	=3	=3	=3	=3	=3
V	4EE	4D#	4F##	8d#	4a#
.	.	.	.	8c#	.
vi	4FF#	8E#	4G#	4B#	4g#
.	.	8D#	.	.	.
IV	4DD	8C#	2c#	2e#	4.g#
.	.	8D#	.	.	.
IVb	4DD	8E#	.	.	.
.	.	8F##	.	.	8a#
=4	=4	=4	=4	=4	=4
I	4AA	4G#	8B#	4d#	4b#
.	.	.	8A#	.	.
Ib	4AA	8BB#	4G#	4d#	4b#
.	.	8C#	.	.	.
V	4EE	4D#	4G#	4.d#	8a#
.	.	.	.	.	8g#
V	4EE	4D#	4F##	.	4a#
.	.	.	.	8c#	.
!!linebreak: 2
=5	=5	=5	=5	=5	=5
I;	2.AA;	2.GG#;	2.D#;	2.B#;	2.g#;
I	4AA	4GG#	4d#	4g#	4b#
=6	=6	=6	=6	=6	=6
V	4EE	4D#	8d#	4f##	4a#
.	.	.	8c#	.	.
Vb/vi	4CC#	4D##	4B#	4f##	4b#
vi	4FF#	4E#	4B#	8e#	4g#
.	.	.	.	8d#	.
V/V	4BB	8A#	4A#	4c##	4e#
.	.	8G#	.	.	.
=7	=7	=7	=7	=7	=7
Vb	4EE	4F##	4A#	4.d#	4f##
viib/V	4DD#	4E#	4G#	.	4g#
.	.	.	.	8c##	.
V;	4EE;	4D#;	4F##;	4d#;	4a#;
V/vi	4CC#	4BB#	4F##	4d##	4b#
=8	=8	=8	=8	=8	=8
vi	4FF#	8E#	4G#	4B#	4g#
.	.	8D#	.	.	.
IVb	4DD	8E#	4c#	4e#	4g#
.	.	8F##	.	.	.
I	4AA	8G#	8B#	4d#	4.g#
.	.	8A#	8c#	.	.
vib	8FF#	8G#	8B#	8e#	.
vii	8GG#	8F##	8A#	8f##	8a#
=9	=9	=9	=9	=9	=9
vi	4FF#	4E#	4G#	4g#	4b#
Ib	4AA	8BB#	4G#	4d#	4b#
.	.	8C#	.	.	.
V	4EE	4D#	4G#	4.d#	8a#
.	.	.	.	.	8g#
V	4EE	4D#	4F##	.	4a#
.	.	.	.	8c#	.
=10	=10	=10	=10	=10	=10
I;	2.AA;	2.GG#;	2.D#;	2.B#;	2.g#;
====	====	====	====	====	====
*-	*-	*-	*-	*-	*-
!!chor2scor: -l 2 -s 0.6 -o %b.pmx
!!!YEC: Copyright 1994, David Huron
!!!YEC: Changes/Additions 2001 by Craig Stuart Sapp
!!!YEN: United States of America
!!!SMA: 371 Bach Chorales, edited by Ludwig Erk, C.F. Peters
!!!PDT: 1850, 1865
!!!ONB: Harmony and Root analysis done manually
